img/vk-mobile.svg

<svg width="50" height="50" viewBox="0 0 50 50" fill="none" xmlns="http://www.w3.org/2000/svg">
<path d="M25 0C11.1933 0 0 11.1928 0 25C0 38.8072 11.1933 50 25 50C38.8066 50 50 38.8072 50 25C50 11.1928 38.8066 0 25 0ZM37.6813 27.7038C38.8465 28.8419 40.0793 29.913 41.1253 31.1688C41.5887 31.7243 42.0256 32.2987 42.3581 32.9448C42.8327 33.866 42.4041 34.8762 41.5795 34.9309L36.4578 34.9299C35.135 35.0394 34.0824 34.5059 33.1949 33.6015C32.4864 32.8808 31.8292 32.111 31.1468 31.3657C30.868 31.0598 30.5744 30.7719 30.2246 30.5453C29.5263 30.091 28.9197 30.2302 28.5197 30.9596C28.112 31.7018 28.0189 32.5243 27.9801 33.3504C27.9243 34.5581 27.5601 34.8737 26.3483 34.9304C23.7591 35.0517 21.3023 34.6588 19.0189 33.3535C17.0046 32.202 15.4455 30.577 14.087 28.7371C11.4414 25.1504 9.41535 21.2138 7.59488 17.1642C7.18517 16.2522 7.48491 15.7642 8.49105 15.7453C10.1627 15.713 11.8343 15.7171 13.5059 15.7437C14.1862 15.7545 14.6363 16.1437 14.8977 16.7857C15.801 19.0082 16.9084 21.1228 18.2962 23.0839C18.666 23.6061 19.0435 24.1269 19.5811 24.4957C20.1744 24.9028 20.6266 24.7683 20.9064 24.1059C21.0854 23.6849 21.1627 23.2348 21.2015 22.7836C21.3345 21.2384 21.3504 19.6936 21.1202 18.1545C20.977 17.1913 20.4353 16.5693 19.4752 16.3872C18.9862 16.2946 19.0578 16.1136 19.2957 15.8343C19.7084 15.3514 20.0951 15.0527 20.868 15.0527L26.6547 15.0517C27.5668 15.2307 27.7714 15.6399 27.8951 16.5586L27.9003 22.9893C27.8895 23.3448 28.0788 24.3985 28.7171 24.6312C29.2286 24.8 29.5662 24.3898 29.8721 24.066C31.2598 22.5933 32.2486 20.8552 33.134 19.0563C33.5248 18.2629 33.8619 17.4419 34.1893 16.6194C34.4327 16.0113 34.8113 15.712 35.4977 15.7222L41.0701 15.7289C41.2343 15.7289 41.401 15.7304 41.5637 15.7586C42.5028 15.9192 42.7601 16.3233 42.4696 17.2394C42.0123 18.6788 41.1238 19.8777 40.2552 21.0798C39.3243 22.3668 38.3315 23.6087 37.4097 24.9013C36.5627 26.0829 36.6297 26.6777 37.6813 27.7038Z" fill="#CACACA"/>
</svg>

<svg width="50" height="50" fill="none" xmlns="http://www.w3.org/2000/svg"><path d="M25 0C11.193 0 0 11.193 0 25s11.193 25 25 25 25-11.193 25-25S38.807 0 25 0zm12.681 27.704c1.166 1.138 2.398 2.209 3.444 3.465.464.555.9 1.13 1.233 1.776.475.921.046 1.931-.778 1.986l-5.122-.001c-1.323.11-2.376-.424-3.263-1.328-.709-.721-1.366-1.491-2.048-2.236-.279-.306-.573-.594-.922-.82-.699-.455-1.305-.316-1.705.414-.408.742-.501 1.564-.54 2.39-.056 1.208-.42 1.524-1.632 1.58-2.589.122-5.046-.271-7.33-1.577-2.013-1.151-3.573-2.776-4.931-4.616-2.646-3.587-4.672-7.523-6.492-11.573-.41-.912-.11-1.4.896-1.419 1.672-.032 3.343-.028 5.015-.001.68.01 1.13.4 1.392 1.042.903 2.222 2.01 4.337 3.398 6.298.37.522.748 1.043 1.285 1.412.593.407 1.046.272 1.325-.39.18-.421.257-.871.296-1.322.132-1.546.148-3.09-.082-4.63-.143-.963-.685-1.585-1.645-1.767-.489-.092-.417-.273-.18-.553.413-.483.8-.781 1.573-.781l5.787-.001c.912.179 1.116.588 1.24 1.507l.005 6.43c-.01.356.179 1.41.817 1.642.512.169.85-.241 1.155-.565 1.388-1.473 2.377-3.21 3.262-5.01.39-.793.728-1.614 1.055-2.437.244-.608.622-.907 1.309-.897l5.572.007c.164 0 .331.001.494.03.939.16 1.196.564.906 1.48-.458 1.44-1.346 2.639-2.215 3.84-.93 1.288-1.924 2.53-2.845 3.822-.847 1.182-.78 1.777.271 2.803z" fill="#CACACA"/></svg>
